X:1
T:En me oyant
T:En me oyant
T:Anonymous
C:Anonymous
%%score [ 1 2 3 4 ]
L:1/8
Q:1/4=80
M:2/2
K:F
V:1 treble nm="Superius" snm="S"
V:2 treble nm="Altus" snm="A"
V:3 treble-8 nm="Tenor" snm="T"
V:4 bass nm="Bassus" snm="B"
V:1
 d3 d G2 d2 | d2 dd e2 f2 | e2 d2 c2 d2- | dc B2 A2 B2- | B2 AG B2 A2 | G4 z4 | z2 B3 BBB | %7
w: En me oy- ant|chan- ter quel- que fois|tu _ _ _|_ _ te plains, qu'es-|* tre je ne dai-|gne,|qu'es- tre je ne|
 A2 GA Bc d2 | B2 c4 B2 | A2 B3 BBB | AG B2 B2 A2 | B2 z B A2 B2 | cB cd ef e2- | e2 d2 d2 c2 | %14
w: dai- * * * * *|gne mu- si-|cien, qu'es- tre ie ne|dai- gne mu- si- ci-|en, et que ma|voix _ _ _ _ _ _|_ me- ri- te|
 d4 z4 | z8 | z8 | z2 d2 cc B2 | A2 B2 AA G2 | F4 G2 F2 | z2 G3 FGF | G2 F2 G3 G | B2 A3 F B2- | %23
w: bien|||que lon men- sei-|gne, que lon men- sei-|gne, voi- re,|voi- re, voi- re,|voi- re que la|pein- ne je prei-|
 B2 AG FD G2- | G2 F2 G4 | z8 | B4 A2 G2 | z FGA Bc d2 | z4 F2 G2 | A4 B2 c2 | dddd dddd |: %31
w: |* * gne||d'ap- pren- dre|ut re mi fa sol la,|ut re|mi fa sol|la, que- dia- ble veulx tu que j'ap-|
 c2 d2 dddc | B2 c3 B B2- | B2 A2 B2 B2- | BBBA G2 A2- | AG G4 F2 | G2 d2 d3 d |1[M:2/4] dd dd :|2 %38
w: prei- gne, je ne bois que|trop sans- * *|* ce- la, je|_ ne bois que trop sans-|* * * ce-|la, que dia- ble|que veulx tu que|
[M:2/2] AG G4 F2 || G8 |] %40
w: (sans)- * * ce-|la.|
V:2
 z8 | G3 G G2 F2 | G2 GG A2 B2 | AGFE F2 G2 | D4 z4 | z4 z2 F2- | FFFF E2 D2 | F2 E2 D4- | %8
w: |En me oy- ant|chan- ter quel- que fois|tu- * * * * te|plains,|qu'es-|* tre je ne dai- gne|mu- * *|
 D2 C2 G4 | z2 F3 FFF | F2 EE F2 F2 | D4 z4 | z8 | z8 | z2 D2 D2 E2 | FEFG AB A2- | A2 G2 G2 F2 | %17
w: * si- cien,|qu'es- tre je ne|dai- gne- mu- si- ci-|cien,|||et que ma|voix _ _ _ _ _ _|_ me- ri- te|
 G2 z A AA G2 | F2 F2 FF E2 | D2 D4 D2 | z2 D3 DDD | C2 D2 D3 D | D2 F3 E D2- | D2 C2 D4 | %24
w: bien que lon men- sei-|gne, que lon men- sei-|gne, voi- re,|voi- re, voi- re,|voi- re que la|pein- ne je prei-|* * gne|
 z2 F2 E2 D2 | z CDE FG A2 | z CDE F2 G2 | A2 z2 z4 | z4 C2 D2 | E2 F2 G2 A2 | z AAA BABG |: %31
w: d'ap- pren- dre|ut re mi fa sol la,|ut re mi fa sol|la,|ut re|mi fa sol la,|que dia- ble veulx tu que j'ap-|
 A2 F2 AAAA | G2 G4 E2 | F4 z2 D2- | DDDD D2 A,2- | A,2 C2 D4 | z2 G2 A3 A |1[M:2/4] BA BG :|2 %38
w: prei- gne, je ne bois que|trop sans ce-|la, je|_ ne bois que trop sans|_ ce- la,|que dia- ble|veulx tu que j'ap-|
[M:2/2] A,2 C2 D4- || D8 |] %40
w: (sans)- ce- la.|_|
V:3
 z8 | z8 | z8 | d3 d d2 G2 | BA Bc de f2 | e2 d2 c2 d2- | dc BA B2 B2 | c4 z2 f2- | ffff e2 d2 | %9
w: |||En me oy- ant|chan- * * * * * *|ter quel- que fois|_ _ _ _ tu te|plains, qu'es-|* tre je ne dai- gne,|
 z2 d3 ddd | c2 BB c2 c2 | B2 f2 f2 g2 | a6 g2 | f2 ed e2 e2 | d4 z4 | z8 | z8 | z2 f2 ee d2 | %18
w: qu'es- tre je ne|dai- gne mu- si- ci-|en, et que ma|voix me-|ri- * * * te|bien|||que lon men- sei-|
 c2 d2 cc B2 | A4 B2 A2 | z2 B3 ABA | G2 A2 B3 B | B2 d2 c2 BA | GFGA B2 AG | A4 G4 | z8 | %26
w: gne, que lon men- sei-|gne, voi- re,|voi- re, voi- re,|voi- re que la|pein- ne je prei- *||* gne||
 z2 f4 e2 | d2 z c defg | a2 z2 z4 | z8 | f2 ff dffd |: e2 d2 fffe | d2 e3 dcB | c2 c2 B2 B2- | %34
w: d'ap- pren-|dre ut re mi fa sol|la,||que dia- ble veulx tu que j'ap-|prei- gne, je ne bois que|trop sans- * * *|* ce- la, je|
 BBBB B2 c2- | cBAG A2 A2 | G2 d2 f3 f |1[M:2/4] df fd :|2[M:2/2] cB AG A2 A2 || G8 |] %40
w: _ ne bois que trop sans-|* * * * * ce-|la, que dia- ble|veulx tu que j'ap-|(sans)- * * * * ce-|la.|
V:4
 z8 | z8 | z8 | z8 | G,3 G, G,2 F,2 | G,2 G,G, A,2 B,2- | B,A, G,F, G,2 G,2 | F,2 z2 B,3 B, | %8
w: ||||En me oy- ant|chan- ter quel- ques fois|_ _ _ _ tu te|plains, qu'es tre|
 B,B, A,2 G,3 F, | D,2 B,,3 B,,B,,B,, | F,2 G,G, F,2 F,2 | B,,4 z4 | z8 | F,2 F,2 G,2 A,2 | %14
w: je ne dai- * *|gne, qu'es- tre je ne|dai- gne mu- si- ci-|en,||et que ma vox|
 z2 B,2 B,2 C2 | D6 C2 | B,2 A,G, A,2 A,2 | G,2 z D, A,A, B,2 | F,2 B,2 F,F, G,2 | D,4 G,2 D,2 | %20
w: me- ti- te|bien que|lon men- * * sei-|gne, que lon men- sei-|gne, que lon men- sei-|gne, voi- re,|
 z2 G,3 D,G,D, | E,2 D,2 G,3 G, | G,2 D,2 F,2 G,2 | _E,4 D,4- | D,4 z2 B,2 | A,2 G,2 z2 F,2 | %26
w: voi- re, voi- re,|voi- re que la|pein- ne je prei-|* gne|_ d'ap-|pren- dre, ut-|
 G,A,B,C D2 z2 | z8 | F,2 G,2 A,2 B,2 | C2 D2 z4 | D,2 D,D, G,F,B,B, |: A,2 D,2 D,D,D,D, | %32
w: re mi fa sol la,||ut re mi fa|sol la,|que dia- ble veulx tu que j'ap-|prei- gne, je bois que trop|
"^#" G,2 C,2 G,4 | F,4 z2 G,2- |"^#" G,G,G,G, G,2 F,2- | F,2 E,2 D,4 | G,2 G,2 D,3 D, |1 %37
w: sans- * ce-|la, je|_ ne bois que trop sans-|* * ce-|la, que dia- ble|
[M:2/4] G,F, B,B, :|2[M:2/2] F,2 E,2 D,4 || G,8 |] %40
w: veulx tu que j'ap-|(sans)- * ce-|la.|

